usr/share/icons/biglinux-icons-material-dark/symbolic/status/pidgin-tray-pending-symbolic.svg

<svg xmlns="http://www.w3.org/2000/svg" viewBox="0 0 16 16">
<path d="M8 2a3 3 0 1 0 0 6 3 3 0 0 0 0-6m0 7a5 4.5 0 0 0-5 4.5 5 4.5 0 0 0 .033.5h9.93a5 4.5 0 0 0 .037-.5A5 4.5 0 0 0 8 9m0 1a4 3.5 0 0 1 3.955 3h-7.91A4 3.5 0 0 1 8 10" style="opacity:1;fill:#9b59b6;fill-opacity:1;stroke:none;stroke-opacity:1"/>
<path d="M6.5 4.5A.5.5 0 0 0 6 5a.5.5 0 0 0 .5.5A.5.5 0 0 0 7 5a.5.5 0 0 0-.5-.5m1.5 0a.5.5 0 0 0-.5.5.5.5 0 0 0 .5.5.5.5 0 0 0 .5-.5.5.5 0 0 0-.5-.5m1.5 0A.5.5 0 0 0 9 5a.5.5 0 0 0 .5.5.5.5 0 0 0 .5-.5.5.5 0 0 0-.5-.5" style="fill:#fff"/>
</svg>

<svg xmlns="http://www.w3.org/2000/svg" viewBox="0 0 16 16">
 <path 
     style="opacity:1;fill:#9b59b6;fill-opacity:1;stroke:none;stroke-opacity:1"
     d="M 8 2 C 6.3431458 2 5 3.3431458 5 5 C 5 6.6568542 6.3431458 8 8 8 C 9.6568542 8 11 6.6568542 11 5 C 11 3.3431458 9.6568542 2 8 2 z M 8 9 A 5 4.5 0 0 0 3 13.5 A 5 4.5 0 0 0 3.0332031 14 L 4 14 L 4.0449219 14 L 11.955078 14 L 12 14 L 12.962891 14 A 5 4.5 0 0 0 13 13.5 A 5 4.5 0 0 0 8 9 z M 8 10 A 4 3.5 0 0 1 11.955078 13 L 4.0449219 13 A 4 3.5 0 0 1 8 10 z "
     />
    <path
       style="fill:#ffffff"
       d="M 6.5 4.5 A 0.5 0.5 0 0 0 6 5 A 0.5 0.5 0 0 0 6.5 5.5 A 0.5 0.5 0 0 0 7 5 A 0.5 0.5 0 0 0 6.5 4.5 z M 8 4.5 A 0.5 0.5 0 0 0 7.5 5 A 0.5 0.5 0 0 0 8 5.5 A 0.5 0.5 0 0 0 8.5 5 A 0.5 0.5 0 0 0 8 4.5 z M 9.5 4.5 A 0.5 0.5 0 0 0 9 5 A 0.5 0.5 0 0 0 9.5 5.5 A 0.5 0.5 0 0 0 10 5 A 0.5 0.5 0 0 0 9.5 4.5 z "/>
</svg>
